app/assets/images/icons/active/contact.svg

<?xml version="1.0" encoding="UTF-8" standalone="no"?>
<svg width="32px" height="232px" viewBox="0 0 32 232" version="1.1" xmlns="http://www.w3.org/2000/svg" xmlns:xlink="http://www.w3.org/1999/xlink" xmlns:sketch="http://www.bohemiancoding.com/sketch/ns">
    <title>contact</title>
    <description>Created with Sketch (http://www.bohemiancoding.com/sketch)</description>
    <defs></defs>
    <g id="Graphics" stroke="none" stroke-width="1" fill="none" fill-rule="evenodd" sketch:type="MSPage">
        <path d="M14.0792805,134.580968 C16.5542805,132.107968 19.4182805,129.743968 20.5502805,130.875968 C22.1732805,132.496968 23.1712805,133.908968 26.7452805,131.035968 C30.3202805,128.162968 27.5752805,126.248968 26.0042805,124.676968 C24.1932805,122.864968 17.4352805,124.580968 10.7572805,131.258968 C4.08028051,137.936968 2.36228051,144.691968 4.17628051,146.506968 C5.74628051,148.076968 7.66028051,150.820968 10.5332805,147.246968 C13.4062805,143.674968 11.9952805,142.672968 10.3722805,141.051968 C9.24128051,139.922968 11.6052805,137.055968 14.0792805,134.580968" id="contact--white" fill="#206FAC" sketch:type="MSShapeGroup"></path>
        <path d="M14.0792805,94.5809683 C16.5542805,92.1079683 19.4182805,89.7439683 20.5502805,90.8759683 C22.1732805,92.4969683 23.1712805,93.9089683 26.7452805,91.0359683 C30.3202805,88.1629683 27.5752805,86.2489683 26.0042805,84.6769683 C24.1932805,82.8649683 17.4352805,84.5809683 10.7572805,91.2589683 C4.08028051,97.9369683 2.36228051,104.691968 4.17628051,106.506968 C5.74628051,108.076968 7.66028051,110.820968 10.5332805,107.246968 C13.4062805,103.674968 11.9952805,102.672968 10.3722805,101.051968 C9.24128051,99.9229683 11.6052805,97.0559683 14.0792805,94.5809683" id="contact--subdued-grey" fill="#FFFFFF" sketch:type="MSShapeGroup"></path>
        <path d="M14.0792805,54.5809683 C16.5542805,52.1079683 19.4182805,49.7439683 20.5502805,50.8759683 C22.1732805,52.4969683 23.1712805,53.9089683 26.7452805,51.0359683 C30.3202805,48.1629683 27.5752805,46.2489683 26.0042805,44.6769683 C24.1932805,42.8649683 17.4352805,44.5809683 10.7572805,51.2589683 C4.08028051,57.9369683 2.36228051,64.6919683 4.17628051,66.5069683 C5.74628051,68.0769683 7.66028051,70.8209683 10.5332805,67.2469683 C13.4062805,63.6749683 11.9952805,62.6729683 10.3722805,61.0519683 C9.24128051,59.9229683 11.6052805,57.0559683 14.0792805,54.5809683" id="contact--body-grey" fill="#67737B" sketch:type="MSShapeGroup"></path>
        <path d="M14.0792805,14.5809683 C16.5542805,12.1079683 19.4182805,9.74396834 20.5502805,10.8759683 C22.1732805,12.4969683 23.1712805,13.9089683 26.7452805,11.0359683 C30.3202805,8.16296834 27.5752805,6.24896834 26.0042805,4.67696834 C24.1932805,2.86496834 17.4352805,4.58096834 10.7572805,11.2589683 C4.08028051,17.9369683 2.36228051,24.6919683 4.17628051,26.5069683 C5.74628051,28.0769683 7.66028051,30.8209683 10.5332805,27.2469683 C13.4062805,23.6749683 11.9952805,22.6729683 10.3722805,21.0519683 C9.24128051,19.9229683 11.6052805,17.0559683 14.0792805,14.5809683" id="contact--title-grey" fill="#3A434E" sketch:type="MSShapeGroup"></path>
    </g>
</svg>

<svg width="32" height="232" viewBox="0 0 32 232" xmlns="http://www.w3.org/2000/svg" xmlns:sketch="http://www.bohemiancoding.com/sketch/ns"><title>contact</title><g sketch:type="MSPage" fill="none"><path d="M14.079 134.581c2.475-2.473 5.339-4.837 6.471-3.705 1.623 1.621 2.621 3.033 6.195.16 3.575-2.873.83-4.787-.741-6.359-1.811-1.812-8.569-.096-15.247 6.582-6.677 6.678-8.395 13.433-6.581 15.248 1.57 1.57 3.484 4.314 6.357.74 2.873-3.572 1.462-4.574-.161-6.195-1.131-1.129 1.233-3.996 3.707-6.471" fill="#206FAC" sketch:type="MSShapeGroup"/><path d="M14.079 94.581c2.475-2.473 5.339-4.837 6.471-3.705 1.623 1.621 2.621 3.033 6.195.16 3.575-2.873.83-4.787-.741-6.359-1.811-1.812-8.569-.096-15.247 6.582-6.677 6.678-8.395 13.433-6.581 15.248 1.57 1.57 3.484 4.314 6.357.74 2.873-3.572 1.462-4.574-.161-6.195-1.131-1.129 1.233-3.996 3.707-6.471" fill="#fff" sketch:type="MSShapeGroup"/><path d="M14.079 54.581c2.475-2.473 5.339-4.837 6.471-3.705 1.623 1.621 2.621 3.033 6.195.16 3.575-2.873.83-4.787-.741-6.359-1.811-1.812-8.569-.096-15.247 6.582-6.677 6.678-8.395 13.433-6.581 15.248 1.57 1.57 3.484 4.314 6.357.74 2.873-3.572 1.462-4.574-.161-6.195-1.131-1.129 1.233-3.996 3.707-6.471" fill="#67737B" sketch:type="MSShapeGroup"/><path d="M14.079 14.581c2.475-2.473 5.339-4.837 6.471-3.705 1.623 1.621 2.621 3.033 6.195.16 3.575-2.873.83-4.787-.741-6.359-1.811-1.812-8.569-.096-15.247 6.582-6.677 6.678-8.395 13.433-6.581 15.248 1.57 1.57 3.484 4.314 6.357.74 2.873-3.572 1.462-4.574-.161-6.195-1.131-1.129 1.233-3.996 3.707-6.471" fill="#3A434E" sketch:type="MSShapeGroup"/></g></svg>
